X: 1
T: Mac Morin's Jig
C: Jerry Holland
D: Fiddler's Choice 1998
R: jig
Z: 2015 John Chambers <jc:trillian.mit.edu>
M: 6/8
L: 1/8
K: Ddor
B, |:\
"Em"EFE "D"FED | "Em"EFA "Bm"BdB | "Em"EFE "(G)"BdB | "D"ABd "(Bm)"FED |\
"Em"EFE "D"FED | "Em"EFA Bde | "D"fed "(Bm)"BAF | "Em"EFE E3 :|
"Em(G)"{ef}gfe "D"fed | "Em"Bee ede | "D"fed "A"cBA | "G"Bdd "D"def |\
"Em(G)"gfe "D"fed | "Em"efd edB | "D"BAF "(Bm)"BdF | "Em"EFE E3 ||
"Em(G)"{ef}gfe "D"fed | "Em"Bee ede | "D"fed "A"cBA | "Bm"Bdd "D7"def |\
"G"gbg "D"faf | "Em"efd edB | "D"BAF "(Bm)"BdF | "Em"EFE E3 |]

%%sep 1 1 500

